communes/159.svg

<?xml version="1.0" encoding="UTF-8" standalone="no"?>
<svg
   xmlns:dc="http://purl.org/dc/elements/1.1/"
   xmlns:cc="http://creativecommons.org/ns#"
   xmlns:rdf="http://www.w3.org/1999/02/22-rdf-syntax-ns#"
   xmlns:svg="http://www.w3.org/2000/svg"
   xmlns="http://www.w3.org/2000/svg"
   xmlns:sodipodi="http://sodipodi.sourceforge.net/DTD/sodipodi-0.dtd"
   xmlns:inkscape="http://www.inkscape.org/namespaces/inkscape"
   version="1.0"
   width="199.43626"
   height="233.60851"
   id="svg2780"
   sodipodi:docname="159.svg">
  <metadata
     id="metadata17">
    <rdf:RDF>
      <cc:Work
         rdf:about="">
        <dc:format>image/svg+xml</dc:format>
        <dc:type
           rdf:resource="http://purl.org/dc/dcmitype/StillImage" />
      </cc:Work>
    </rdf:RDF>
  </metadata>
  <sodipodi:namedview
     pagecolor="#ffffff"
     bordercolor="#666666"
     borderopacity="1"
     objecttolerance="10"
     gridtolerance="10"
     guidetolerance="10"
     inkscape:pageopacity="0"
     inkscape:pageshadow="2"
     inkscape:window-width="640"
     inkscape:window-height="480"
     id="namedview15" />
  <defs
     id="defs2782" />
  <g
     transform="translate(-24.441982,-811.89527)"
     id="layer1">
    <path
       d="M 25.441982,812.89527 L 29.031728,963.71009 C 31.595824,1071.435 216.72438,1071.435 219.28849,963.71009 L 222.87824,812.89527 L 25.441982,812.89527 z"
       id="path3282"
       style="fill:#ffffff;fill-opacity:1;fill-rule:evenodd;stroke:#000000;stroke-width:1.99999988;stroke-linecap:butt;stroke-miterlimit:4;stroke-dashoffset:0;stroke-opacity:1" />
    <path
       d="M 78.983281,1024.9312 C 67.527167,994.87282 119.2275,1023.7751 119.25697,994.50772 L 119.38166,870.69419 L 130.35405,870.94357 L 129.48125,994.38304 C 129.25137,1026.8955 182.23684,995.97073 169.87962,1026.4274 C 168.69641,1000.6895 138.70197,1028.4939 127.48627,1007.8492 C 124.92903,1014.9869 130.08933,1022.8921 127.73564,1026.8015 C 125.43729,1030.619 123.19978,1031.5814 127.48627,1038.3973 C 118.50591,1036.1419 121.31764,1030.4273 123.19978,1025.804 C 125.10674,1021.1197 118.35929,1018.78 120.87789,1007.8492 C 107.0921,1027.5209 80.999293,999.80467 78.983281,1024.9312 z"
       id="path2618"
       style="fill:#a53921;fill-opacity:1;fill-rule:evenodd;stroke:#000000;stroke-width:1px;stroke-linecap:butt;stroke-linejoin:round;stroke-opacity:1" />
    <path
       d="M 123.58704,971.07262 L 81.796086,929.28167 C 78.896552,926.38214 75.548905,924.7067 72.274099,923.28635 L 97.3134,923.28635 C 96.055486,924.59472 95.735738,926.79203 97.313399,928.34644 L 123.58704,954.23281 L 149.86067,928.34644 C 151.43833,926.79203 151.11858,924.59472 149.86067,923.28635 L 174.89997,923.28635 C 171.62516,924.7067 168.27751,926.38213 165.37798,929.28167 L 123.58704,971.07262 z"
       id="path3397"
       style="fill:#000000;fill-opacity:1;fill-rule:evenodd;stroke:none;stroke-width:1px;stroke-linecap:butt;stroke-linejoin:miter;stroke-opacity:1" />
    <path
       d="M 124.16011,999.72675 L 193.50311,932.19117 C 197.87317,927.93772 202.83612,926.20553 207.69792,923.28635 L 179.22013,923.28635 C 180.47804,924.59472 180.52599,926.78465 178.95563,928.34644 L 124.16011,982.88694 L 69.364602,928.34644 C 67.794248,926.78465 67.842189,924.59472 69.100103,923.28635 L 40.622306,923.28635 C 45.48411,926.20553 50.447058,927.93772 54.817121,932.19117 L 124.16011,999.72675 z"
       id="path3395"
       style="fill:#000000;fill-opacity:1;fill-rule:evenodd;stroke:none;stroke-width:1px;stroke-linecap:butt;stroke-linejoin:miter;stroke-opacity:1" />
    <path
       d="M 124.55903,890.14319 C 111.71069,890.14319 101.27778,900.5761 101.27778,913.42444 C 101.27778,926.27278 111.7107,936.67444 124.55903,936.67444 C 137.40737,936.67444 147.84027,926.27277 147.84028,913.42444 C 147.84028,900.5761 137.40737,890.14319 124.55903,890.14319 z M 124.55903,899.83069 C 132.05389,899.83069 138.12153,905.92958 138.12153,913.42444 C 138.12152,920.9193 132.05389,926.98694 124.55903,926.98694 C 117.06417,926.98694 110.96528,920.9193 110.96528,913.42444 C 110.96528,905.92958 117.06417,899.83069 124.55903,899.83069 z"
       id="path3392"
       style="color:#000000;fill:#000000;fill-opacity:1;fill-rule:evenodd;stroke:none;stroke-width:1pt;stroke-linecap:butt;stroke-linejoin:miter;marker:none;marker-start:none;marker-mid:none;marker-end:none;stroke-miterlimit:4;stroke-dasharray:none;stroke-dashoffset:0;stroke-opacity:1;visibility:visible;display:inline;overflow:visible;enable-background:accumulate" />
    <path
       d="M 100.2229,849.57911 C 99.803886,844.69678 100.89422,840.56912 102.3389,836.61863 C 112.86544,837.66029 118.08437,827.24869 124.38054,819.16165 C 128.53427,826.49304 134.77808,837.49942 146.42217,836.26596 C 147.39739,840.46422 148.66102,844.62643 147.83284,849.05011 C 145.24767,847.50055 143.19275,845.06724 141.30851,842.34945 L 141.66118,849.13828 C 133.82206,846.94973 129.14738,839.65282 123.19978,836.41343 C 118.86819,840.51123 114.06312,846.80275 107.80522,848.69745 L 107.45256,842.87845 C 105.84712,845.73769 103.92011,848.34681 100.2229,849.57911 z"
       id="path2614"
       style="fill:#316b10;fill-opacity:1;fill-rule:evenodd;stroke:#000000;stroke-width:0.99921262;stroke-linecap:butt;stroke-linejoin:round;stroke-miterlimit:4;stroke-dasharray:none;stroke-opacity:1" />
    <path
       d="M 141.74934,874.08942 L 108.33422,872.94325 L 106.13006,864.12659 C 103.37036,867.22619 100.71519,870.56097 97.0489,871.62075 L 96.431734,865.27276 C 93.951425,867.87846 91.520455,870.5617 87.438746,870.65092 C 87.703075,865.6254 88.673248,860.71751 90.348242,855.9271 C 104.46681,865.50363 113.42989,846.95526 123.19978,832.12213 C 133.66948,841.30599 140.44035,865.057 158.63285,856.63244 C 159.76645,861.4816 161.05456,866.33076 161.05782,871.17992 C 156.8204,870.45062 154.67526,867.62905 152.24117,865.09642 L 152.4175,872.59058 C 147.71586,870.78429 145.29341,866.95205 142.63101,863.33309 L 141.74934,874.08942 z"
       id="path3408"
       style="fill:#316b10;fill-opacity:1;fill-rule:evenodd;stroke:#000000;stroke-width:0.99921262;stroke-linecap:butt;stroke-linejoin:round;stroke-miterlimit:4;stroke-dasharray:none;stroke-opacity:1" />
    <path
       d="M 115.74021,860.24726 C 105.48324,872.57052 91.090527,885.36678 79.41559,873.56041 C 77.951882,879.48682 76.780955,885.53871 76.946926,892.16356 C 80.382374,891.56969 82.892588,889.12534 85.410915,886.69723 C 85.661653,888.53841 85.451384,890.03383 86.55708,892.51622 C 90.565232,891.24565 94.003908,888.83613 97.3134,886.16823 L 97.489733,890.84106 C 101.78324,889.08594 105.53451,885.70408 109.12772,881.84807 L 109.03956,886.2564 C 117.93988,883.02841 121.00728,876.12784 125.21812,869.15208 C 127.50233,871.582 130.88489,882.4227 139.45701,885.9919 L 139.36885,881.93624 C 143.16765,885.34703 146.69101,889.15129 152.06483,890.31206 L 151.53583,885.7274 C 154.89892,888.31044 157.39715,891.20798 163.17382,892.91336 L 162.90932,886.96173 C 165.25745,889.0807 167.30236,890.53307 170.57981,891.72272 C 170.84035,884.07205 170.59637,878.94393 170.40348,873.56041 C 156.98511,886.45266 141.00488,872.49673 131.78653,860.07093 C 131.03844,859.06254 129.67973,858.99085 129.40603,859.8946 C 128.32172,863.47501 127.16579,866.97313 124.29237,869.41659 C 121.19398,866.50709 119.59148,863.85958 118.82604,860.6881 C 118.59137,859.71578 116.43491,859.4126 115.74021,860.24726 z"
       id="path2605"
       style="fill:#316b10;fill-opacity:1;fill-rule:evenodd;stroke:#000000;stroke-width:0.99921262;stroke-linecap:butt;stroke-linejoin:round;stroke-miterlimit:4;stroke-dasharray:none;stroke-opacity:1" />
    <path
       d="M 127.40278,865.33069 C 126.62974,866.85223 125.63656,868.26898 124.27778,869.42444 C 122.81754,868.05322 121.7063,866.72997 120.84028,865.39319 C 117.7439,869.89369 115.75425,875.14758 115.99653,881.92444 C 117.65674,880.62386 118.95891,879.1457 120.15278,877.61194 C 121.95432,879.64271 123.3039,881.12945 125.34028,882.45569 C 127.24695,881.31881 128.59008,879.26476 130.02778,877.42444 C 131.23272,879.16392 132.44784,880.83786 133.65278,882.11194 C 133.44234,875.97089 131.23478,870.41546 127.40278,865.33069 z"
       id="path2612"
       style="fill:#316b10;fill-opacity:1;fill-rule:evenodd;stroke:#000000;stroke-width:0.99921262;stroke-linecap:butt;stroke-linejoin:round;stroke-miterlimit:4;stroke-dasharray:none;stroke-opacity:1" />
    <path
       d="M 124.38054,819.16165 C 121.05779,826.19865 117.65763,833.16599 116.62188,842.26129 C 117.91499,842.04174 119.2081,841.81161 120.50121,841.82046 C 121.0755,844.69829 121.83151,847.55016 124.02787,850.19628 C 126.25596,847.62031 126.93914,844.38224 127.55453,841.11512 C 128.80081,841.23268 129.86378,841.35023 130.64036,841.46779 C 130.44175,834.03241 127.31224,826.59703 124.38054,819.16165 z"
       id="path2616"
       style="fill:#316b10;fill-opacity:1;fill-rule:evenodd;stroke:#000000;stroke-width:0.99921262;stroke-linecap:butt;stroke-linejoin:round;stroke-miterlimit:4;stroke-dasharray:none;stroke-opacity:1" />
  </g>
</svg>

<?xml version="1.0" encoding="UTF-8"?>
<svg version="1.0" viewBox="0 0 199.44 233.61" xmlns="http://www.w3.org/2000/svg" xmlns:cc="http://creativecommons.org/ns#" xmlns:dc="http://purl.org/dc/elements/1.1/" xmlns:rdf="http://www.w3.org/1999/02/22-rdf-syntax-ns#">
<metadata>
<rdf:RDF>
<cc:Work rdf:about="">
<dc:format>image/svg+xml</dc:format>
<dc:type rdf:resource="http://purl.org/dc/dcmitype/StillImage"/>
</cc:Work>
</rdf:RDF>
</metadata>
<g transform="translate(-24.442 -811.9)" fill-rule="evenodd">
<path d="m25.442 812.9 3.5897 150.81c2.5641 107.72 187.69 107.72 190.26 0l3.5898-150.81h-197.44z" fill="#fff" stroke="#000" stroke-width="2"/>
<path d="m78.983 1024.9c-11.456-30.058 40.244-1.1561 40.274-30.423l0.12469-123.81 10.972 0.24938-0.8728 123.44c-0.22988 32.512 52.756 1.5877 40.398 32.044-1.1832-25.738-31.178 2.0665-42.393-18.578-2.5572 7.1377 2.6031 15.043 0.24937 18.952-2.2984 3.8175-4.5359 4.7799-0.24937 11.596-8.9804-2.2554-6.1686-7.97-4.2865-12.593 1.907-4.6843-4.8405-7.024-2.3219-17.955-13.786 19.672-39.879-8.0445-41.895 17.082z" fill="#a53921" stroke="#000" stroke-linejoin="round" stroke-width="1px"/>
<path d="m123.59 971.07-41.791-41.791c-2.8995-2.8995-6.2472-4.575-9.522-5.9953h25.039c-1.2579 1.3084-1.5777 3.5057-1e-6 5.0601l26.274 25.886 26.274-25.886c1.5777-1.5544 1.2579-3.7517 0-5.0601h25.039c-3.2748 1.4204-6.6225 3.0958-9.522 5.9953l-41.791 41.791z"/>
<path d="m124.16 999.73 69.343-67.536c4.3701-4.2534 9.333-5.9856 14.195-8.9048h-28.478c1.2579 1.3084 1.3059 3.4983-0.2645 5.0601l-54.796 54.54-54.796-54.54c-1.5704-1.5618-1.5224-3.7517-0.2645-5.0601h-28.478c4.8618 2.9192 9.8248 4.6514 14.195 8.9048l69.343 67.536z"/>
<path d="m124.56 890.14c-12.848 0-23.281 10.433-23.281 23.281s10.433 23.25 23.281 23.25c12.848 0 23.281-10.402 23.281-23.25 0-12.848-10.433-23.281-23.281-23.281zm0 9.6875c7.4949 0 13.562 6.0989 13.562 13.594-1e-5 7.4949-6.0676 13.562-13.562 13.562s-13.594-6.0676-13.594-13.562 6.0989-13.594 13.594-13.594z" color="#000000"/>
<path d="m100.22 849.58c-0.41901-4.8823 0.67132-9.01 2.116-12.96 10.527 1.0417 15.745-9.3699 22.042-17.457 4.1537 7.3314 10.398 18.338 22.042 17.104 0.97522 4.1983 2.2388 8.3605 1.4107 12.784-2.5852-1.5496-4.6401-3.9829-6.5243-6.7007l0.35267 6.7888c-7.8391-2.1886-12.514-9.4855-18.461-12.725-4.3316 4.0978-9.1367 10.389-15.395 12.284l-0.35266-5.819c-1.6054 2.8592-3.5324 5.4684-7.2297 6.7007z" fill="#316b10" stroke="#000" stroke-linejoin="round" stroke-width=".99921"/>
<path d="m141.75 874.09-33.415-1.1462-2.2042-8.8167c-2.7597 3.0996-5.4149 6.4344-9.0812 7.4942l-0.61717-6.348c-2.4803 2.6057-4.9113 5.2889-8.993 5.3782 0.26433-5.0255 1.2345-9.9334 2.9095-14.724 14.119 9.5765 23.082-8.9718 32.852-23.805 10.47 9.1839 17.241 32.935 35.433 24.51 1.1336 4.8492 2.4217 9.6983 2.425 14.547-4.2374-0.7293-6.3826-3.5509-8.8166-6.0835l0.17633 7.4942c-4.7016-1.8063-7.1241-5.6385-9.7865-9.2575l-0.88167 10.756z" fill="#316b10" stroke="#000" stroke-linejoin="round" stroke-width=".99921"/>
<path d="m115.74 860.25c-10.257 12.323-24.65 25.12-36.325 13.313-1.4637 5.9264-2.6346 11.978-2.4687 18.603 3.4354-0.59387 5.9457-3.0382 8.464-5.4663 0.25074 1.8412 0.040469 3.3366 1.1462 5.819 4.0082-1.2706 7.4468-3.6801 10.756-6.348l0.17633 4.6728c4.2935-1.7551 8.0448-5.137 11.638-8.993l-0.08816 4.4083c8.9003-3.228 11.968-10.129 16.179-17.104 2.2842 2.4299 5.6668 13.271 14.239 16.84l-0.08816-4.0557c3.7988 3.4108 7.3222 7.215 12.696 8.3758l-0.529-4.5847c3.3631 2.583 5.8613 5.4806 11.638 7.186l-0.2645-5.9516c2.3481 2.119 4.393 3.5713 7.6705 4.761 0.26054-7.6507 0.01656-12.779-0.17633-18.162-13.418 12.892-29.399-1.0637-38.617-13.489-0.74809-1.0084-2.1068-1.0801-2.3805-0.17633-1.0843 3.5804-2.2402 7.0785-5.1137 9.522-3.0984-2.9095-4.7009-5.557-5.4663-8.7285-0.23467-0.97232-2.3911-1.2755-3.0858-0.44084z" fill="#316b10" stroke="#000" stroke-linejoin="round" stroke-width=".99921"/>
<path d="m127.4 865.33c-0.77304 1.5215-1.7662 2.9383-3.125 4.0938-1.4602-1.3712-2.5715-2.6945-3.4375-4.0312-3.0964 4.5005-5.086 9.7544-4.8438 16.531 1.6602-1.3006 2.9624-2.7787 4.1562-4.3125 1.8015 2.0308 3.1511 3.5175 5.1875 4.8438 1.9067-1.1369 3.2498-3.1909 4.6875-5.0312 1.2049 1.7395 2.4201 3.4134 3.625 4.6875-0.21044-6.141-2.418-11.696-6.25-16.781z" fill="#316b10" stroke="#000" stroke-linejoin="round" stroke-width=".99921"/>
<path d="m124.38 819.16c-3.3228 7.037-6.7229 14.004-7.7587 23.1 1.2931-0.21955 2.5862-0.44968 3.8793-0.44083 0.57429 2.8778 1.3303 5.7297 3.5267 8.3758 2.2281-2.576 2.9113-5.814 3.5267-9.0812 1.2463 0.11756 2.3092 0.23511 3.0858 0.35267-0.19861-7.4354-3.3281-14.871-6.2598-22.306z" fill="#316b10" stroke="#000" stroke-linejoin="round" stroke-width=".99921"/>
</g>
</svg>
